X: 193
T:Maple Leaf Jig
% Nottingham Music Database
S:Trad, arr Phil Rowe
M:6/8
K:G
D|"G"B2G G2E|D2B, B,2G|"D"F2A AGF|"G"G2B BGA|"G"B2G "C"G2E|"G"D2B, B,2G|\
"D"F2A "D7"AGF|"G"G3 -G2::
K:D
F/2G/2|"D"A2A A^GA|BA^G A2d|"A"d2c "A7"c2e|"D"e2d dFG|
A2A A^GA|"D/dim"BA^G "D"A2d|"A"d2c "A7"cBc| [1"D"d3- d2:|[2"D"d3 "D7"=c2|<end>
<start>
